svgs/mdgram.svg

<svg width="24" height="24" viewBox="0 0 24 24" fill="none" xmlns="http://www.w3.org/2000/svg">
<path fill-rule="evenodd" clip-rule="evenodd" d="M2.01984 13.3458C2.10614 12.4562 2.63479 11.5938 3.63644 10.443C3.23112 9.7206 3 8.88729 3 8C3 5.23858 5.23858 3 8 3C8.85851 3 9.66648 3.21637 10.3724 3.59755C11.453 2.63607 12.2794 2.1231 13.1374 2.02645C14.0232 1.92667 14.9178 2.11074 15.6929 2.55229C16.9934 3.29312 17.7164 5.14471 19.1624 8.84755C21.4146 14.6152 22.5408 17.499 21.7457 19.3116C21.2771 20.3799 20.4338 21.2385 19.3759 21.7244C17.581 22.5488 14.6899 21.4619 8.90783 19.2882C5.19574 17.8927 3.33949 17.1948 2.58183 15.9013C2.13024 15.1304 1.93353 14.2358 2.01984 13.3458ZM9.20424 5.25148C9.70317 5.4704 10.1311 5.82119 10.444 6.25974C10.794 6.75052 11 7.35121 11 8C11 9.65685 9.65685 11 8 11C7.37093 11 6.78708 10.8064 6.3048 10.4755C5.85965 10.1701 5.50103 9.74769 5.27325 9.25267C5.09783 8.87145 5 8.44715 5 8C5 7.91437 5.00359 7.82958 5.01062 7.74577C5.1328 6.2898 6.29476 5.12959 7.7515 5.01014C7.83345 5.00343 7.91632 5 8 5C8.42831 5 8.83565 5.08976 9.20424 5.25148Z" fill="black"/>
</svg>

<svg xmlns="http://www.w3.org/2000/svg" width="24" height="24" fill="none" viewBox="0 0 24 24"><path fill="#000" fill-rule="evenodd" d="M2.02 13.346c.086-.89.615-1.752 1.616-2.903a5 5 0 0 1 6.736-6.845c1.081-.962 1.907-1.475 2.765-1.572a4.21 4.21 0 0 1 2.556.526c1.3.741 2.023 2.593 3.47 6.296 2.252 5.767 3.378 8.651 2.583 10.464a4.757 4.757 0 0 1-2.37 2.412c-1.795.825-4.686-.262-10.468-2.436-3.712-1.395-5.569-2.093-6.326-3.387a4.246 4.246 0 0 1-.562-2.555M9.204 5.25c.5.22.927.57 1.24 1.009a3 3 0 1 1-1.24-1.008Z" clip-rule="evenodd"/></svg>
